X:5
T:Drummer
M:C|
L:1/8
K:AMix
f|ec d/c/B/A/ E2    EF|G2GA B/A/B/c/ dB|A/A/A c>A E2E>f|edTcB        TcAA:|
f|ecac        d/d/d df|ecac B/B/B    Bf|ecac      def^g|a/^g/f/e/ a>c A/A/A A:|

% @@@@@@@@@@@@@@@@@@@@@@@@@@@@@@@@@@

%%  6. ===============================================================================

% @A'BODY LOO'S ME.@
%
% *CROSS behind back your arms wt. your Partner, turn round & cast off, that again,
% and cast up.  *Cross over and figure in, then Right & Left.  *SETT cross Partners.
% *Lead out at the Sides.

% @@@@@@@@@@@@@@@@@@@@@@@@@@@@@@@@@@

